assets/img/braze_icons/spacing-height-01.svg

<svg fill="none" height="24" viewBox="0 0 24 24" width="24" xmlns="http://www.w3.org/2000/svg"><g fill="#801ed7"><path d="m2 3c0-.55228.44772-1 1-1h18c.5523 0 1 .44772 1 1s-.4477 1-1 1h-18c-.55228 0-1-.44772-1-1z"/><path d="m2 21c0-.5523.44772-1 1-1h18c.5523 0 1 .4477 1 1s-.4477 1-1 1h-18c-.55228 0-1-.4477-1-1z"/><path d="m14.4453 8.83205-1.4453-.96352v8.26307l1.4453-.9635c.4595-.3064 1.0804-.1822 1.3867.2773.3064.4595.1822 1.0804-.2773 1.3868l-3 2c-.3359.2239-.7735.2239-1.1094 0l-3.00002-2c-.45952-.3064-.5837-.9273-.27735-1.3868.30636-.4595.92723-.5837 1.38675-.2773l1.44532.9635v-8.26309l-1.44532.96354c-.45952.30635-1.08039.18218-1.38675-.27735-.30635-.45953-.18217-1.0804.27735-1.38675l3.00002-2c.3359-.22393.7735-.22393 1.1094 0l3 2c.4595.30635.5837.92722.2773 1.38675-.3063.45953-.9272.5837-1.3867.27735z"/></g></svg>

<svg width="24" height="24" viewBox="0 0 24 24" fill="none" xmlns="http://www.w3.org/2000/svg">
<path d="M2 3C2 2.44772 2.44772 2 3 2H21C21.5523 2 22 2.44772 22 3C22 3.55228 21.5523 4 21 4H3C2.44772 4 2 3.55228 2 3Z" fill="#801ED7"/>
<path d="M2 21C2 20.4477 2.44772 20 3 20H21C21.5523 20 22 20.4477 22 21C22 21.5523 21.5523 22 21 22H3C2.44772 22 2 21.5523 2 21Z" fill="#801ED7"/>
<path d="M14.4453 8.83205L13 7.86853L13 16.1316L14.4453 15.1681C14.9048 14.8617 15.5257 14.9859 15.832 15.4454C16.1384 15.9049 16.0142 16.5258 15.5547 16.8322L12.5547 18.8322C12.2188 19.0561 11.7812 19.0561 11.4453 18.8322L8.44528 16.8322C7.98576 16.5258 7.86158 15.9049 8.16793 15.4454C8.47429 14.9859 9.09516 14.8617 9.55468 15.1681L11 16.1316L11 7.86851L9.55468 8.83205C9.09516 9.1384 8.47429 9.01423 8.16793 8.5547C7.86158 8.09517 7.98576 7.4743 8.44528 7.16795L11.4453 5.16795C11.7812 4.94402 12.2188 4.94402 12.5547 5.16795L15.5547 7.16795C16.0142 7.4743 16.1384 8.09517 15.832 8.5547C15.5257 9.01423 14.9048 9.1384 14.4453 8.83205Z" fill="#801ED7"/>
</svg>
